X:53
T: Porzik, porzik az Onesti utca
O: Onest (Bákó), 1929
Q:1/4=120
L:1/4
K:Eb
GGcG | A/G/F/A/ G E | D/E/G/F/ E<D | C2 C z | 
GGcG | A/G/F/A/ G E | D/E/G/F/ E<D | C2 C z | 
c>d c<B | A/G/F/A/ G z | c>d c<B | A/G/F/A/ G z | 
G/G/=A/=B/ c G | A/G/F/A/ G E | D/E/G/F/ E<D | C2 C z | 

